X:1
T:Ae Fond Kiss
M:6/8
L:1/8
Q:80
C:R. Burns
S:Slow Air
K:HP
|: {g}c2{GdG}c{g}e2f | \
{g}A2{GBG}A{g}G/2{d}A3 | \
{g}f2{e}f{ag}a2f |
{gef}e2B{g}c/2e3 | \
{Gdc}d2f{ag}a2A | \
{g}A2{GBG}A{g}G/2{d}A3 |
{g}c2B{g}c2f | \
M:12/8 {gef}e3-e2c{g}B{d}c2-c3:| [ | \
{g}A2{GAG}A{g}c2d |
{g}c2{GdG}c{g}B/2{d}c3 | \
{g}d2{c}d{g}f2d | \
{g}c2d{g}e/2c3 |
{g}B2d{g}f2c | \
{g}c2{GdG}c{g}B/2{d}c3 | \
{g}c2B{g}c2f |
M:12/8 {gef}e3-e2c{g}B{d}c2-c3 :|
